X:1
T:Shottish
C:Belgium
Z:Erik Ronstrm <kvarken@yahoo.com> abcusers 2003-4-21
R:schottis
L:1/8
M:2/2
K:Ddor
f3a  fedc|A3a  fedc|edef gedc|BABc dcde|
f3a  fedc|A3a  fedc|edef gedc|Afef d3e::
f2cB cfcB|e2cB cecB|d2cB cdcB|AAz2 zB3|
f2cB cfcB|e2cB cecB|d2cB cdcB|Afef d3e:|
